source/img/services/services-nav/crm-icon.svg

<svg width="33" height="33" viewBox="0 0 33 33" fill="none" xmlns="http://www.w3.org/2000/svg">
<path d="M9.65057 19.4924L9.26758 19.8754L9.41838 28.1098L10.3116 28.6925H11.6679L12.7145 28.1098V20.2584L12.0979 19.4924H9.65057Z" fill="#AAAAAA"/>
<path d="M16.0771 17.5111L15.2866 17.7517V28.413L16.0771 28.659H17.7793L18.4602 28.0984V18.164C18.5975 17.6918 18.2487 17.773 17.7793 17.511L16.0771 17.5111Z" fill="#AAAAAA"/>
<path d="M21.0837 13.012L20.7036 13.8334V28.1045L21.7248 28.7254H23.3127L24.3146 27.8683V14.4821L23.9345 13.012C22.7277 12.3588 22.1131 12.4224 21.0837 13.012Z" fill="#AAAAAA"/>
<path d="M9.15771 16.7969C12.977 16.5241 21.0519 14.0689 22.7979 6.43042M22.7979 6.43042L21.7067 7.24883M22.7979 6.43042L23.3435 7.52163" stroke="#0A3D76" stroke-width="0.7" stroke-linecap="round" stroke-linejoin="round"/>
<path d="M24.3142 21.8853V27.7493C24.3142 28.3015 23.8664 28.7493 23.3142 28.7493H21.7031C21.1508 28.7493 20.7031 28.3015 20.7031 27.7493V13.3354C20.7031 12.7832 21.1508 12.3354 21.7031 12.3354H23.3142C23.8664 12.3354 24.3142 12.7832 24.3142 13.3354V20.2439" stroke="#0A3D76" stroke-width="0.7" stroke-linecap="round"/>
<path d="M15.1226 26.7305V18.2593C15.1226 17.707 15.5703 17.2593 16.1226 17.2593H17.7336C18.2859 17.2593 18.7336 17.707 18.7336 18.2593V27.7489C18.7336 28.3012 18.2859 28.7489 17.7336 28.7489H16.1226C15.5703 28.7489 15.1226 28.292 15.1226 27.7397V27.7397" stroke="#0A3D76" stroke-width="0.7" stroke-linecap="round"/>
<path d="M9.21338 21.6093V27.7493C9.21338 28.3015 9.66109 28.7493 10.2134 28.7493H11.8244C12.3767 28.7493 12.8244 28.3015 12.8244 27.7493V20.2292C12.8244 19.677 12.3767 19.2292 11.8244 19.2292H10.2134C9.66109 19.2292 9.21338 19.677 9.21338 20.2292V20.4192" stroke="#0A3D76" stroke-width="0.5" stroke-linecap="round"/>
</svg>

<svg width="33" height="33" fill="none" xmlns="http://www.w3.org/2000/svg"><path d="M9.65 19.492l-.382.383.15 8.235.894.582h1.356l1.046-.582v-7.852l-.616-.766H9.65zm6.427-1.981l-.79.24v10.662l.79.246h1.702l.681-.56v-9.935c.137-.472-.211-.391-.68-.653h-1.703zm5.007-4.499l-.38.821v14.272l1.02.62h1.589l1.002-.857V14.482l-.38-1.47c-1.207-.653-1.822-.59-2.851 0z" fill="#AAA"/><path d="M9.158 16.797c3.819-.273 11.894-2.728 13.64-10.367m0 0l-1.091.819m1.09-.819l.546 1.092" stroke="#0A3D76" stroke-width=".7" stroke-linecap="round" stroke-linejoin="round"/><path d="M24.314 21.885v5.864a1 1 0 01-1 1h-1.61a1 1 0 01-1-1V13.335a1 1 0 011-1h1.61a1 1 0 011 1v6.909m-9.191 6.486v-8.47a1 1 0 011-1h1.61a1 1 0 011 1v9.489a1 1 0 01-1 1h-1.61c-.553 0-1-.457-1-1.01v0" stroke="#0A3D76" stroke-width=".7" stroke-linecap="round"/><path d="M9.213 21.61v6.14a1 1 0 001 1h1.611a1 1 0 001-1v-7.52a1 1 0 00-1-1h-1.61a1 1 0 00-1 1v.19" stroke="#0A3D76" stroke-width=".5" stroke-linecap="round"/></svg>
